X:332
T:Looney Tune, The
M:6/8
C:© Paul Gitlitz, 2011
K:G
DEF|"G".G2.B .D2.B|.G2.B DEF|.G2.B .D2.B|.G2.B DEG|!
"Am".A2.c .E2.c|ABc .E2.c|.A2.c .E2.c|ABc cBA|!
"G".G2.B .D2.B|GAB .D2.B|.G2.B .D2.B|GAB dcB|!
"C"cde gfe|"G"ded cBA|GAB "D"A2B |"G"G3"D7"def||!
"G"g2b d2b|gbg d2b|g2b d2b|gab bag|!
"D7"f2a d2a|faf d2a|f2a d2a|fga agf|!
"C"e2g c2g|efg gfe|"G"d2g "Em"B2g|"G"def "G/B"gdB|!
"C"cde gfe|"G"ded cBA|GAB "D"A2B |"G"G3G,3|]
